img/linked.svg

<svg width="16" height="17" viewBox="0 0 16 17" fill="none" xmlns="http://www.w3.org/2000/svg">
<path d="M3.64062 16.1719V5.66016H0.371094V16.1719H3.64062ZM1.98828 4.25391C3.04297 4.25391 3.88672 3.375 3.88672 2.32032C3.88672 1.30079 3.04297 0.457031 1.98828 0.457031C0.96875 0.457031 0.125 1.30079 0.125 2.32032C0.125 3.375 0.96875 4.25391 1.98828 4.25391ZM15.8398 16.1719H15.875V10.4063C15.875 7.59375 15.2422 5.41407 11.9375 5.41407C10.3555 5.41407 9.30078 6.29297 8.84375 7.10157H8.80859V5.66016H5.67969V16.1719H8.94922V10.9688C8.94922 9.59766 9.19531 8.29688 10.8828 8.29688C12.5703 8.29688 12.6055 9.84375 12.6055 11.0743V16.1719H15.8398Z" fill="#292F36"/>
</svg>

<svg width="16" height="17" fill="none" xmlns="http://www.w3.org/2000/svg"><path d="M3.64 16.172V5.66H.372v10.512h3.27ZM1.989 4.254c1.055 0 1.899-.879 1.899-1.934 0-1.02-.844-1.863-1.899-1.863C.968.457.125 1.301.125 2.32c0 1.055.844 1.934 1.863 1.934ZM15.84 16.172h.035v-5.766c0-2.812-.633-4.992-3.938-4.992-1.582 0-2.636.879-3.093 1.688h-.035V5.66h-3.13v10.512h3.27v-5.203c0-1.371.246-2.672 1.934-2.672 1.687 0 1.723 1.547 1.723 2.777v5.098h3.234Z" fill="#292F36"/></svg>
